X:1
T:No Dough Blues
M:4/4
L:1/8
K:C
 cc| c2- cAG-C C2| cc-c _B G2 _E2| C8-| C6 cc| c2- cAG-C C2| cc-c _B G2 _E2|\
 C8-| C6 _B=B| d2 _B=B AG-G A| _eec-_B G2|_E-=E| C8-| C6||

